!!!!SEGMENT: pl-kk--kk-i-1--057_anonim--sacred-song.krn
!!!cenid: 15xx:782
!!!COM: Anonim
!!!COM-rismid: pe30004985
!!!CDT:
!!!CNT:
!!!OTL: [Sacred song]
!!!PDT:
!!!AGN:
!!!SMS-siglum: PL-Kk
!!!SMS-shelfmark: Kk.I.1
!!!SMS-shelfwork: 057 W
!!!SMS-variant:
!!!SMS-altvar:
!!!NIFC-rismid: 300258011
!!!URL-scan: http://repozytorium.nifc.pl/skany/pl-kk-nut--i-1
!!!ONB-nifc: UWAGA: Cantus (s. 177r-v, skan 0179-0180), Altus (s. 174r-v, skan 0367-0368), Tenor (s. 149r, skan 0539), Bassus (s. 162v-163r, skan 0725).
!!!key: G:mix
**kern	**text	**kern	**text	**kern	**text	**kern	**text
*part4	*part4	*part3	*part3	*part2	*part2	*part1	*part1
*staff4	*staff4	*staff3	*staff3	*staff2	*staff2	*staff1	*staff1
*I"BASSVS	*	*I"TENOR	*	*I"ALTVS	*	*I"CANTVS	*
*I'B	*	*I'T	*	*I'A	*	*I'S	*
*Ibass	*	*Itenor	*	*Ialto	*	*Isoprn	*
*ICvox	*	*ICvox	*	*ICvox	*	*ICvox	*
*clefC4	*	*clefC5	*	*clefF5	*	*clefC3	*
*k[]	*	*k[]	*	*k[]	*	*k[]	*
*G:mix	*	*G:mix	*	*G:mix	*	*G:mix	*
*M2/1	*	*M2/1	*	*M2/1	*	*M2/1	*
*met(C|)	*	*met(C|)	*	*met(C|)	*	*met(C|)	*
=1-	=1-	=1-	=1-	=1-	=1-	=1-	=1-
*stria6	*	*stria6	*	*stria6	*	*stria6	*
!	!	!	!	!LO:TX:t=P:problem:karty błędnie wklejone do rękopisu: w księdze Altus znalazła się partia Bassus i na odwrót	!	!	!
!	!	!LO:TX:t=P:problem:melodia w tenorze to hymn Festum nunc celebre. Jedna z jego zwrotek zaczyna się od "O", a mianowicie Oramus Domine conditor inclite" i to pewnie ten tekst miał się tu znaleźć. \nJakby co mam zrobioną rewokalizację tego utworu. 	!	!	!	!	!
1d	O	1G	O	2r	.	1g	O
.	.	.	.	2G\	O	.	.
2c/	.	1E	.	2C/	.	2g\	.
2B/	.	.	.	2E\	.	2g\	.
=2-	=2-	=2-	=2-	=2-	=2-	=2-	=2-
*	*	*lig	*	*	*	*lig	*
1d	.	1F	.	2.D\	.	1f	.
.	.	.	.	4D\	.	.	.
2e\	.	1E	.	2C/	.	1g	.
2c/	.	.	.	1G\	.	.	.
*	*	*Xlig	*	*	*	*Xlig	*
=3-	=3-	=3-	=3-	=3-	=3-	=3-	=3-
2.d\	.	1D	.	.	.	2.d/	.
.	.	.	.	2F\	.	.	.
4c\	.	.	.	.	.	4d/	.
2B/	.	1G	.	2G\	.	2d/	.
2.c/	.	.	.	2.C/	.	4e/	.
.	.	.	.	.	.	4d/	.
=4-	=4-	=4-	=4-	=4-	=4-	=4-	=4-
.	.	1G	.	.	.	4e/	.
8B/L	.	.	.	4D/	.	4f/	.
8A/J	.	.	.	.	.	.	.
4G/	.	.	.	4E\	.	1g	.
4A/	.	.	.	4F\	.	.	.
*	*	*lig	*	*	*	*	*
2B/	.	1G	.	2G\	.	.	.
4B/	.	.	.	2E\	.	2g\	.
!LO:TX:t=P:problem:minima przerobiona na semibrevis	!	!	!	!	!	!	!
2c/	.	.	.	.	.	.	.
=5-	=5-	=5-	=5-	=5-	=5-	=5-	=5-
.	.	1A	.	2F\	.	2.f\	.
2A/	.	.	.	.	.	.	.
.	.	.	.	2D\	.	.	.
4d\	.	.	.	.	.	4f\	.
*	*	*Xlig	*	*	*	*	*
2B/	.	1G	.	2E\	.	2e/	.
2c/	.	.	.	2C/	.	2e/	.
*	*	*	*	*custos:D	*	*	*
=6-	=6-	=6-	=6-	=6-	=6-	=6-	=6-
*	*	*lig	*	*	*	*	*
!	!	!	!	!LO:LB:g=original	!	!	!
2.A/	.	1F	.	2D\	.	2f\	.
.	.	.	.	2F\	.	2a\	.
4B/	.	.	.	.	.	.	.
2c/	.	1E	.	1C	.	2e/	.
2e\	.	.	.	.	.	2e/	.
*custos:d	*	*Xlig	*	*	*	*custos:a	*
=7-	=7-	=7-	=7-	=7-	=7-	=7-	=7-
*	*	*lig	*	*	*	*	*
!LO:LB:g=original	!	!	!	!	!	!LO:LB:g=original	!
2.d\	.	1D	.	2D\	.	2.a\	.
.	.	.	.	2D\	.	.	.
4d\	.	.	.	.	.	4a\	.
2d\	.	1G	.	2GG/	.	2b\	.
2e\	.	.	.	2C/	.	2g\	.
*	*	*Xlig	*	*	*	*	*
=8-	=8-	=8-	=8-	=8-	=8-	=8-	=8-
2c/	.	1F	.	2F\	.	2a\	.
4d\	.	.	.	4D\	.	4a\	.
4d\	.	.	.	4D\	.	4f\	.
2e\	.	1G	.	2C/	.	4e\	.
.	.	.	.	.	.	2g\	.
4e\	.	.	.	4C/	.	.	.
4d\	.	.	.	4BB/	.	4g\	.
=9-	=9-	=9-	=9-	=9-	=9-	=9-	=9-
2e\	.	1G	.	2C/	.	2g\	.
4d\	.	.	.	2GG/	.	4g\	.
4B/	.	.	.	.	.	4d/	.
2c/	.	1F	.	2r	.	2f\	.
1A/	.	.	.	2D/	.	1f\	.
=10-	=10-	=10-	=10-	=10-	=10-	=10-	=10-
*	*	*lig	*	*	*	*	*
.	.	1A	.	2D/	.	.	.
1c	.	.	.	2AA/	.	2e/	.
.	.	1G	.	2C/	.	2e/	.
4B/	.	.	.	2E\	.	4e/	.
4c/	.	.	.	.	.	4g\	.
*	*	*Xlig	*	*	*	*	*
*	*	*custos:A	*	*	*	*	*
=11-	=11-	=11-	=11-	=11-	=11-	=11-	=11-
!	!	!LO:LB:g=original	!	!	!	!	!
2d\	.	1A	.	1D	.	1d	.
2A/	.	.	.	.	.	.	.
2G/	.	1B	.	2GG/	.	1d	.
!LO:TX:t=P:problem:korekta wysokości i dorysowany łuk legujący (od strony caud)	!	!	!	!	!	!	!
2B/	.	.	.	2G\	.	.	.
=12-	=12-	=12-	=12-	=12-	=12-	=12-	=12-
*	*	*lig	*	*	*	*	*
2B/	.	1c	.	2E\	.	1r	.
2A/	.	.	.	2F\	.	.	.
2A/	.	1B	.	2G\	.	2r	.
*	*	*	*	*custos:BB	*	*	*
!	!	!	!	!LO:LB:g=original	!	!	!
1G/	.	.	.	2BB/	.	2d/	.
*	*	*Xlig	*	*	*	*	*
=13-	=13-	=13-	=13-	=13-	=13-	=13-	=13-
.	.	1A	.	1D	.	1d	.
2F/	.	.	.	.	.	.	.
1G	.	1G	.	1GG	.	1d	.
*custos:c	*	*	*	*	*	*	*
=14-	=14-	=14-	=14-	=14-	=14-	=14-	=14-
!LO:LB:g=original	!	!	!	!	!	!	!
00r	.	1A	.	2r	.	2r	.
.	.	.	.	2.D\	.	2f\	.
.	.	1A	.	.	.	1f	.
.	.	.	.	4E\	.	.	.
.	.	.	.	4F\	.	.	.
.	.	.	.	4D\	.	.	.
*	*	*	*	*	*	*custos:e	*
=15-	=15-	=15-	=15-	=15-	=15-	=15-	=15-
!	!	!	!	!	!	!LO:LB:g=origianl	!
.	.	1G	.	2E\	.	1e	.
.	.	.	.	2C/	.	.	.
*	*	*lig	*	*	*	*	*
.	.	1F	.	2D\	.	1f	.
.	.	.	.	2F\	.	.	.
=16-	=16-	=16-	=16-	=16-	=16-	=16-	=16-
2r	.	1E	.	2.C/	.	2.g\	.
2c/	.	.	.	.	.	.	.
.	.	.	.	4C/	.	4g\	.
*	*	*Xlig	*	*	*	*	*
4A/	.	1F	.	2F\	.	1a	.
4B/	.	.	.	.	.	.	.
4c/	.	.	.	2D\	.	.	.
4A/	.	.	.	.	.	.	.
=17-	=17-	=17-	=17-	=17-	=17-	=17-	=17-
*	*	*lig	*	*	*	*	*
2G/	.	1G	.	4E\	.	1r	.
.	.	.	.	4F\	.	.	.
2B/	.	.	.	4G\	.	.	.
.	.	.	.	4E\	.	.	.
2A/	.	1F	.	2F\	.	2r	.
2d\	.	.	.	4D\	.	2d/	.
.	.	.	.	4D\	.	.	.
*	*	*Xlig	*	*	*	*	*
=18-	=18-	=18-	=18-	=18-	=18-	=18-	=18-
2G/	.	1G	.	4C/	.	4e\	.
.	.	.	.	4D/	.	4f\	.
2c\	.	.	.	4E/	.	4g\	.
.	.	.	.	4C/	.	4e\	.
8d\L	.	1G	.	4GG/	.	2d/	.
8c\	.	.	.	.	.	.	.
8B\	.	.	.	4G\	.	.	.
8A\J	.	.	.	.	.	.	.
4B\	.	.	.	8G\L	.	4r	.
.	.	.	.	8F\	.	.	.
4B\	.	.	.	8E\	.	4g\	.
.	.	.	.	8D\J	.	.	.
*	*	*	*	*custos:C	*	*	*
=19-	=19-	=19-	=19-	=19-	=19-	=19-	=19-
!	!	!	!	!LO:LB:g=original	!	!	!
4c\	.	1G	.	4C/	.	8g\L	.
.	.	.	.	.	.	8f\	.
4d\	.	.	.	4BB/	.	8e\	.
.	.	.	.	.	.	8d\J	.
2c\	.	.	.	2C/	.	2e/	.
2B\	.	1G	.	2GG/	.	2d/	.
2B\	.	.	.	2r	.	4r	.
.	.	.	.	.	.	4g\	.
=20-	=20-	=20-	=20-	=20-	=20-	=20-	=20-
*	*	*lig	*	*	*	*	*
4.c\	.	1c	.	2r	.	8g\L	.
.	.	.	.	.	.	8f\	.
.	.	.	.	.	.	8e\	.
8d\	.	.	.	.	.	8d\J	.
4e\	.	.	.	4r	.	4c/	.
4c\	.	.	.	4AA/	.	4a\	.
2.d\	.	1B	.	2BB/	.	2f\	.
.	.	.	.	4GG/	.	1g\	.
4B\	.	.	.	4GG/	.	.	.
*	*	*Xlig	*	*	*	*	*
=21-	=21-	=21-	=21-	=21-	=21-	=21-	=21-
*	*	*lig	*	*	*	*	*
4.e\	.	1c	.	4.C/	.	.	.
8d\	.	.	.	8BB/	.	.	.
*	*	*	*	*	*	*custos:a	*
!	!	!	!	!	!	!LO:LB:g=original	!
4c\	.	.	.	4AA/	.	4r	.
4c\	.	.	.	4AA/	.	4a\	.
*custos:B	*	*	*	*	*	*	*
!LO:LB:g=original	!	!	!	!	!	!	!
2.B/	.	1d	.	2GG/	.	2d/	.
.	.	.	.	2GG/	.	2g\	.
4G/	.	.	.	.	.	.	.
*	*	*Xlig	*	*	*	*	*
*	*	*custos:d	*	*	*	*	*
=22-	=22-	=22-	=22-	=22-	=22-	=22-	=22-
!	!	!LO:LB:g=original	!	!	!	!	!
2A/	.	1d	.	4r	.	2f#X\	.
.	.	.	.	8D/L	.	.	.
.	.	.	.	8C/J	.	.	.
2d\	.	.	.	4BB/	.	4r	.
.	.	.	.	4BB/	.	8g\L	.
.	.	.	.	.	.	8f#\J	.
*	*	*lig	*	*	*	*	*
4e\	.	1c	.	4r	.	4e/	.
8e\L	.	.	.	8C/L	.	4e/	.
8d\J	.	.	.	8BB/J	.	.	.
4c\	.	.	.	4AA/	.	4r	.
4A/	.	.	.	4AA/	.	8a\L	.
.	.	.	.	.	.	8g\J	.
=23-	=23-	=23-	=23-	=23-	=23-	=23-	=23-
4r	.	1d	.	4r	.	2fny\	.
8d\L	.	.	.	8BB/L	.	.	.
8c\J	.	.	.	8AA/J	.	.	.
2B/	.	.	.	2GG/	.	2g\	.
*	*	*Xlig	*	*	*	*	*
2A/	.	1d	.	2.D/	.	4r	.
.	.	.	.	.	.	8a\L	.
.	.	.	.	.	.	8g\J	.
2A/	.	.	.	.	.	4f#Xi\	.
.	.	.	.	4D/	.	4f#\	.
*	*	*	*	*custos:G	*	*	*
=24-	=24-	=24-	=24-	=24-	=24-	=24-	=24-
!	!	!	!	!LO:PB:g=original	!	!	!
2B/	.	1d	.	2G\	.	2r	.
2B/	.	.	.	2G\	.	4r	.
.	.	.	.	.	.	8g\L	.
.	.	.	.	.	.	8fny\J	.
*	*	*lig	*	*	*	*	*
2c/	.	1e	.	2C/	.	2e/	.
2c/	.	.	.	2C/	.	4e/	.
.	.	.	.	.	.	4a\	.
=25-	=25-	=25-	=25-	=25-	=25-	=25-	=25-
1d	.	1d	.	1G	.	2g\	.
.	.	.	.	.	.	2g\	.
*	*	*Xlig	*	*	*	*	*
*	*	*lig	*	*	*	*	*
4e\	.	1c	.	1C	.	2.g\	.
2e\	.	.	.	.	.	.	.
4e\	.	.	.	.	.	4g\	.
*	*	*	*	*	*	*custos:g	*
=26-	=26-	=26-	=26-	=26-	=26-	=26-	=26-
!	!	!	!	!	!	!LO:PB:g=original	!
2d\	.	1B	.	2r	.	4g\	.
.	.	.	.	.	.	4g\	.
4d\	.	.	.	2G\	.	2g\	.
4d\	.	.	.	.	.	.	.
*	*	*Xlig	*	*	*	*	*
*	*	*lig	*	*	*	*	*
1d	.	1A	.	1D	.	1a	.
=27-	=27-	=27-	=27-	=27-	=27-	=27-	=27-
2d\	.	1G	.	2G\	.	1b	.
2e\	.	.	.	2C/	.	.	.
*	*	*Xlig	*	*	*	*	*
2d\	.	1F	.	1D	.	2r	.
2A/	.	.	.	.	.	2f\	.
*custos:G	*	*	*	*	*	*	*
=28-	=28-	=28-	=28-	=28-	=28-	=28-	=28-
!LO:PB:g=original	!	!	!	!	!	!	!
1G	.	1G	.	1E	.	1.e	.
2r	.	1G	.	2C/	.	.	.
2d\	.	.	.	2BB/	.	2d/	.
=29-	=29-	=29-	=29-	=29-	=29-	=29-	=29-
2c/	.	1G	.	2C/	.	2e/	.
2B\	.	.	.	2GG/	.	4g\	.
.	.	.	.	.	.	4f\	.
2c\	.	1G	.	2C/	.	4e\	.
.	.	.	.	.	.	4d\	.
2G/	.	.	.	2C/	.	2e/	.
=30-	=30-	=30-	=30-	=30-	=30-	=30-	=30-
*	*	*lig	*	*	*	*	*
2A/	.	1F	.	2F\	.	2f\	.
2A/	.	.	.	2D\	.	1a	.
2A/	.	1E	.	1AA	.	.	.
1A/	.	.	.	.	.	4a\	.
.	.	.	.	.	.	4g\	.
*	*	*Xlig	*	*	*	*	*
=31-	=31-	=31-	=31-	=31-	=31-	=31-	=31-
.	.	1D	.	2D\	.	4f\	.
.	.	.	.	.	.	4e\	.
2F/	.	.	.	2D\	.	2f\	.
*	*	*	*	*custos:E	*	*	*
!	!	!	!	!LO:LB:g=original	!	!	!
2G/	.	1G	.	2E\	.	2e/	.
4c\	.	.	.	2C/	.	2e/	.
4B\	.	.	.	.	.	.	.
=32-	=32-	=32-	=32-	=32-	=32-	=32-	=32-
4A\	.	1A	.	2.F\	.	1f	.
4G\	.	.	.	.	.	.	.
!LO:TX:t=P:problem:na górnym marginesie karty w tym miejscu zanotowana data 1698 i "ud"? (jakaś abrewiacja, ale nie wiem od jakiego słowa)	!	!	!	!	!	!	!
2F/	.	.	.	.	.	.	.
.	.	.	.	4F\	.	.	.
2c\	.	1F	.	2F\	.	1f	.
2d\	.	.	.	2D\	.	.	.
=33-	=33-	=33-	=33-	=33-	=33-	=33-	=33-
2B/	.	1G	.	2E\	.	2e/	.
2c/	.	.	.	2C/	.	1g	.
4d\	.	[1Gl/	.	4G\	.	.	.
4d\	.	.	.	4F\	.	.	.
2G/	.	.	.	4E\	.	2g\	.
.	.	.	.	4D\	.	.	.
*	*	*	*	*	*	*custos:g	*
=34-	=34-	=34-	=34-	=34-	=34-	=34-	=34-
!	!	!	!	!	!	!LO:LB:g=original	!
2r	.	0G_	.	2C/	.	1g	.
2G/	.	.	.	2BB/	.	.	.
4E/	.	.	.	1.C	.	4g\	.
4D/	.	.	.	.	.	4f\	.
4E/	.	.	.	.	.	4e\	.
4F/	.	.	.	.	.	4d\	.
=35-	=35-	=35-	=35-	=35-	=35-	=35-	=35-
2.G/	.	0G]	.	.	.	2.e\	.
.	.	.	.	2C/	.	.	.
4G/	.	.	.	.	.	4e\	.
1Gl/	.	.	.	1GGl/	.	1dl	.
==	==	==	==	==	==	==	==
*-	*-	*-	*-	*-	*-	*-	*-
!!!system-decoration: [s1,s2,s3,s4]
!!!RDF**kern: > = above
!!!RDF**kern: < = below
!!!RDF**kern: l = terminal long
!!!RDF**kern: i = editorial accidental
!!!ENC: Katarzyna Serwa
!!!END: 2022-03-29
!!!AIN: 1 alto 1 bass 1 soprn 1 tenor
!!!ENC: Mateusz Solarz
!!!END: 2022-03-23
